picto/customs-fr-framed.svg

<svg class="color-immutable" width="30" height="30" viewBox="0 0 30 30" fill="none" xmlns="http://www.w3.org/2000/svg"><path d="M29.9999 0H0V29.9999H29.9999V0Z" fill="#2D327D"/><path d="M25.4999 2.99999C26.3249 2.99999 26.9999 3.67499 26.9999 4.49999V25.4999C26.9999 26.3249 26.3249 26.9999 25.4999 26.9999H4.49999C3.67499 26.9999 2.99999 26.3249 2.99999 25.4999V4.49999C2.99999 3.67499 3.67499 2.99999 4.49999 2.99999H25.4999ZM25.4999 2.62499H4.49999C3.46612 2.62499 2.62499 3.46612 2.62499 4.49999V25.4999C2.62499 26.5338 3.46612 27.3749 4.49999 27.3749H25.4999C26.5338 27.3749 27.3749 26.5338 27.3749 25.4999V4.49999C27.3749 3.46612 26.5338 2.62499 25.4999 2.62499Z" fill="white"/><path d="M21.7494 10.5001H17.738V9.59946C17.738 8.85478 17.1324 8.24938 16.3873 8.24938H13.6125C12.8673 8.24938 12.2626 8.85478 12.2626 9.59946V10.5001H8.2503C7.00822 10.5001 5.99925 11.5075 5.99925 12.7497V21.7494C5.99925 22.9917 7.00822 23.9991 8.2503 23.9991H21.7494C22.9924 23.9991 24.0004 22.9917 24.0004 21.7494V12.7498C24.0004 11.5075 22.9925 10.5001 21.7494 10.5001ZM16.6882 10.5001H13.3123V9.29953H16.6882V10.5001Z" fill="white"/><path d="M12.7718 11.9247C9.85289 11.9247 7.48484 14.2167 7.48484 17.1358C7.48484 20.0549 9.85289 22.4999 12.7718 22.4999C15.6907 22.4999 18.0595 20.0549 18.0595 17.1358C18.0596 14.2167 15.6907 11.9247 12.7718 11.9247ZM12.7718 21.0948C10.6815 21.0948 8.98424 19.3976 8.98424 17.3067C8.98424 15.2167 10.6816 13.5194 12.7718 13.5194C14.862 13.5194 16.5593 15.2166 16.5593 17.3067C16.5593 19.3976 14.862 21.0948 12.7718 21.0948Z" fill="#EB0000"/><path d="M10.725 17.8499H14.8498C15.1609 17.8499 15.4127 17.5982 15.4127 17.2872C15.4127 16.977 15.1609 16.7247 14.8498 16.7247H10.725C10.4139 16.7247 10.1631 16.9771 10.1631 17.2872C10.1631 17.5982 10.4139 17.8499 10.725 17.8499Z" fill="black"/><path d="M10.1633 15.307H10.586C10.6647 15.307 10.732 15.3161 10.7881 15.3342C10.8441 15.3522 10.8936 15.3809 10.9365 15.42C11.041 15.5154 11.0931 15.6477 11.0931 15.8169C11.0931 15.9963 11.0437 16.1347 10.945 16.2325C10.9016 16.2759 10.8528 16.3068 10.7984 16.3251C10.744 16.3434 10.675 16.3526 10.591 16.3526H10.1633V15.307ZM10.3915 15.5001V16.1595H10.5674C10.6213 16.1595 10.6642 16.1541 10.6961 16.1434C10.728 16.1327 10.756 16.1145 10.7798 16.0887C10.8352 16.0287 10.8628 15.9407 10.8628 15.8248C10.8628 15.7179 10.8371 15.6372 10.7859 15.5823C10.7347 15.5276 10.659 15.5001 10.5589 15.5001H10.3915Z" fill="black"/><path d="M11.6044 15.5502C11.7179 15.5502 11.8106 15.5878 11.8826 15.6632C11.9536 15.7375 11.9891 15.8367 11.9891 15.9607C11.9891 16.089 11.9513 16.1913 11.8754 16.2675C11.8044 16.3386 11.7119 16.3741 11.5979 16.3741C11.4764 16.3741 11.3795 16.3346 11.3075 16.2554C11.2388 16.1801 11.2046 16.0823 11.2046 15.9622C11.2046 15.8439 11.2379 15.7479 11.3047 15.6739C11.3786 15.5914 11.4785 15.5502 11.6044 15.5502ZM11.5937 15.7119C11.5388 15.7119 11.4952 15.7341 11.4628 15.7784C11.4299 15.8232 11.4134 15.8845 11.4134 15.9622C11.4134 16.0428 11.4296 16.1045 11.4621 16.1475C11.4955 16.1908 11.541 16.2125 11.5987 16.2125C11.6525 16.2125 11.6952 16.1927 11.7267 16.1532C11.7625 16.1093 11.7803 16.0456 11.7803 15.9622C11.7803 15.884 11.7647 15.8232 11.7332 15.7797C11.7002 15.7344 11.6537 15.7119 11.5937 15.7119Z" fill="black"/><path d="M12.8338 15.5717V16.3527H12.6364V16.239C12.5767 16.329 12.4933 16.3741 12.386 16.3741C12.2926 16.3741 12.222 16.3429 12.1743 16.2804C12.1561 16.2561 12.1432 16.2275 12.1353 16.1946C12.1274 16.1616 12.1235 16.1187 12.1235 16.0658V15.5716H12.3309V16.0014C12.3309 16.0463 12.3322 16.0779 12.3349 16.0965C12.3375 16.1151 12.3428 16.1309 12.3509 16.1438C12.3728 16.1786 12.4103 16.196 12.4632 16.196C12.5285 16.196 12.5759 16.1671 12.6055 16.1094C12.6198 16.0813 12.627 16.0305 12.627 15.9571V15.5716H12.8338V15.5717Z" fill="black"/><path d="M13.6992 16.3527H13.4875C13.4784 16.3222 13.4739 16.2962 13.4739 16.2747C13.409 16.341 13.3254 16.3741 13.2229 16.3741C13.1428 16.3741 13.0803 16.3555 13.0355 16.3184C12.9839 16.2755 12.9582 16.2156 12.9582 16.1388C12.9582 16.041 13.0023 15.9734 13.0905 15.9357C13.1263 15.9204 13.1921 15.9063 13.2879 15.8935C13.3704 15.8826 13.4218 15.872 13.442 15.8617C13.4623 15.8514 13.4724 15.8308 13.4724 15.7998C13.4724 15.7317 13.4271 15.6976 13.3365 15.6976C13.2884 15.6976 13.2532 15.7062 13.2311 15.7233C13.2089 15.7405 13.1942 15.7703 13.187 15.8127H12.9911C12.9973 15.726 13.0299 15.6605 13.0891 15.6164C13.1482 15.5723 13.2323 15.5502 13.3415 15.5502C13.4621 15.5502 13.5513 15.5748 13.609 15.6239C13.6357 15.6468 13.6535 15.6714 13.6622 15.6975C13.671 15.7237 13.6754 15.7652 13.6754 15.822C13.6754 15.8338 13.6748 15.8862 13.6733 15.9793C13.6724 16.0732 13.6719 16.1271 13.6719 16.1409C13.6719 16.1977 13.6736 16.2393 13.6769 16.2657C13.6803 16.2922 13.6877 16.3212 13.6992 16.3527ZM13.4711 15.9757C13.4444 15.9924 13.3957 16.0055 13.3252 16.015C13.2755 16.0227 13.2398 16.0324 13.2179 16.0444C13.1869 16.0611 13.1714 16.0895 13.1714 16.1295C13.1714 16.1619 13.1816 16.1872 13.2021 16.2054C13.2226 16.2234 13.2512 16.2325 13.2879 16.2325C13.349 16.2325 13.3983 16.2111 13.436 16.1682C13.4493 16.1534 13.4585 16.138 13.4635 16.122C13.4684 16.1061 13.471 16.085 13.471 16.0587V15.9757H13.4711Z" fill="black"/><path d="M14.0311 15.5738V15.6832C14.0554 15.6499 14.0781 15.6253 14.0991 15.6096C14.1506 15.5696 14.2125 15.5495 14.285 15.5495C14.3489 15.5495 14.403 15.5658 14.4474 15.5981C14.4826 15.6239 14.5073 15.6564 14.5214 15.6957C14.5355 15.7351 14.5425 15.7905 14.5425 15.862V16.3527H14.3358V15.9057C14.3358 15.8556 14.3315 15.8189 14.3229 15.7955C14.3148 15.775 14.301 15.7588 14.2815 15.7469C14.259 15.7341 14.2335 15.7276 14.2049 15.7276C14.1735 15.7276 14.1448 15.7353 14.1191 15.7505C14.0934 15.7658 14.0742 15.7865 14.0619 15.8127C14.0481 15.8423 14.0412 15.8883 14.0412 15.9507V16.3527H13.8337V15.5738H14.0311Z" fill="black"/><path d="M15.4072 16.1094C15.3962 16.1533 15.3764 16.1946 15.3478 16.2331C15.2792 16.3271 15.1805 16.374 15.0517 16.374C14.9354 16.374 14.8421 16.3374 14.772 16.2639C14.7377 16.2281 14.7115 16.185 14.6934 16.1344C14.6738 16.0805 14.664 16.0242 14.664 15.9656C14.664 15.8521 14.6967 15.7568 14.7621 15.6795C14.835 15.5933 14.9294 15.5501 15.0452 15.5501C15.1386 15.5501 15.2183 15.579 15.2841 15.6366C15.3314 15.6781 15.3656 15.7292 15.3871 15.79C15.4085 15.8508 15.4193 15.9272 15.4193 16.0193H14.8751C14.877 16.0575 14.8829 16.0892 14.8929 16.1145C14.921 16.1826 14.9744 16.2167 15.0531 16.2167C15.0917 16.2167 15.1232 16.2082 15.1475 16.1913C15.1718 16.1743 15.1919 16.147 15.2076 16.1094H15.4072V16.1094ZM15.2076 15.8799C15.2038 15.8422 15.1952 15.811 15.1819 15.7862C15.1685 15.7619 15.1496 15.7426 15.125 15.7283C15.1004 15.714 15.0736 15.7068 15.0446 15.7068C14.9983 15.7068 14.9602 15.7224 14.9301 15.7533C14.9001 15.7843 14.8822 15.8266 14.8765 15.8799H15.2076Z" fill="black"/></svg>

<svg class="color-immutable" width="30" height="30" viewBox="0 0 30 30" fill="none" xmlns="http://www.w3.org/2000/svg"><path d="M30 0H0v30h30V0Z" fill="#2D327D"/><path d="M25.5 3c.825 0 1.5.675 1.5 1.5v21c0 .825-.675 1.5-1.5 1.5h-21c-.825 0-1.5-.675-1.5-1.5v-21C3 3.675 3.675 3 4.5 3h21Zm0-.375h-21A1.877 1.877 0 0 0 2.625 4.5v21c0 1.034.841 1.875 1.875 1.875h21a1.877 1.877 0 0 0 1.875-1.875v-21A1.877 1.877 0 0 0 25.5 2.625Z" fill="#fff"/><path d="M21.75 10.5h-4.012v-.9c0-.745-.606-1.35-1.35-1.35h-2.776a1.35 1.35 0 0 0-1.35 1.35v.9H8.25A2.251 2.251 0 0 0 6 12.75v9A2.251 2.251 0 0 0 8.25 24h13.5A2.25 2.25 0 0 0 24 21.75v-9a2.25 2.25 0 0 0-2.25-2.25Zm-5.062 0h-3.376V9.3h3.376v1.2Z" fill="#fff"/><path d="M12.772 11.925c-2.92 0-5.287 2.292-5.287 5.21 0 2.92 2.368 5.365 5.287 5.365s5.287-2.445 5.287-5.364c0-2.92-2.368-5.211-5.287-5.211Zm0 9.17a3.79 3.79 0 0 1-3.788-3.788 3.79 3.79 0 0 1 3.788-3.788 3.79 3.79 0 0 1 3.787 3.788 3.79 3.79 0 0 1-3.787 3.788Z" fill="#EB0000"/><path d="M10.725 17.85h4.125a.563.563 0 1 0 0-1.125h-4.125a.562.562 0 0 0 0 1.125ZM10.163 15.307h.423c.079 0 .146.01.202.027a.4.4 0 0 1 .149.086.51.51 0 0 1 .156.397c0 .18-.05.318-.148.416a.375.375 0 0 1-.147.092.66.66 0 0 1-.207.028h-.428v-1.046Zm.229.193v.66h.175a.417.417 0 0 0 .13-.017.198.198 0 0 0 .083-.054c.055-.06.083-.148.083-.264 0-.107-.026-.188-.077-.243-.051-.054-.127-.082-.227-.082h-.167ZM11.604 15.55c.114 0 .207.038.279.113a.413.413 0 0 1 .106.298c0 .128-.038.23-.114.306a.375.375 0 0 1-.277.107.373.373 0 0 1-.29-.119.418.418 0 0 1-.103-.293c0-.118.033-.214.1-.288a.382.382 0 0 1 .3-.124Zm-.01.162a.154.154 0 0 0-.131.066.305.305 0 0 0-.05.184c0 .08.017.143.05.186a.163.163 0 0 0 .136.064c.053 0 .096-.02.128-.059a.296.296 0 0 0 .053-.19.307.307 0 0 0-.047-.183.162.162 0 0 0-.14-.068ZM12.834 15.572v.78h-.198v-.113a.284.284 0 0 1-.25.135c-.093 0-.164-.031-.212-.094a.231.231 0 0 1-.039-.085.57.57 0 0 1-.011-.13v-.493h.207v.43c0 .044.001.076.004.095a.12.12 0 0 0 .016.047c.022.035.06.052.112.052a.149.149 0 0 0 .143-.087.372.372 0 0 0 .021-.152v-.385h.207ZM13.7 16.353h-.212a.28.28 0 0 1-.014-.078.336.336 0 0 1-.251.1.286.286 0 0 1-.188-.057.22.22 0 0 1-.077-.18c0-.097.044-.165.133-.202a.867.867 0 0 1 .197-.043.632.632 0 0 0 .154-.031c.02-.01.03-.031.03-.062 0-.068-.045-.102-.136-.102-.048 0-.083.008-.105.025-.022.018-.037.047-.044.09h-.196a.253.253 0 0 1 .098-.197.416.416 0 0 1 .252-.066c.121 0 .21.025.268.074a.17.17 0 0 1 .053.073.425.425 0 0 1 .013.125 16.907 16.907 0 0 1-.003.319c0 .057.002.098.005.125.003.026.01.055.022.087Zm-.229-.377a.402.402 0 0 1-.146.039.35.35 0 0 0-.107.03c-.031.016-.047.044-.047.084 0 .033.01.058.031.076.02.018.05.028.086.028.061 0 .11-.022.148-.065a.126.126 0 0 0 .027-.046.22.22 0 0 0 .008-.063v-.083ZM14.031 15.574v.11a.294.294 0 0 1 .254-.134c.064 0 .118.016.162.048.036.026.06.058.074.098.014.04.021.095.021.166v.49h-.206v-.446a.344.344 0 0 0-.013-.11.098.098 0 0 0-.042-.05.166.166 0 0 0-.162.004.141.141 0 0 0-.057.063.345.345 0 0 0-.02.138v.402h-.208v-.78h.197ZM15.407 16.11a.348.348 0 0 1-.06.123.344.344 0 0 1-.295.141.369.369 0 0 1-.28-.11.36.36 0 0 1-.079-.13.49.49 0 0 1-.029-.168c0-.114.033-.21.098-.286a.354.354 0 0 1 .283-.13.35.35 0 0 1 .342.24c.021.06.032.137.032.23h-.544c.002.038.008.07.018.095.028.068.081.102.16.102.039 0 .07-.009.095-.026a.182.182 0 0 0 .06-.082h.2Zm-.2-.23a.251.251 0 0 0-.025-.094.157.157 0 0 0-.137-.08.153.153 0 0 0-.115.047.208.208 0 0 0-.053.127h.33Z" fill="#000"/></svg>
